src/icons/exclude.svg

<svg width="16" height="16" viewBox="0 0 16 16" fill="none" xmlns="http://www.w3.org/2000/svg">
<path fill-rule="evenodd" clip-rule="evenodd" d="M9.41155 1L6.58845 1.00002L6.10395 3.42254L4.04837 2.05215L2.05214 4.04839L3.42252 6.10396L1 6.58846V9.41156L3.42253 9.89606L2.05214 11.9516L4.04838 13.9479L6.10395 12.5775L6.58845 15H8.67134C8.31745 14.7136 8.00787 14.3747 7.75447 13.9951H7.41231L7.12404 12.5537C7.09769 12.4439 7.07537 12.3325 7.05724 12.2197L6.94068 11.6369L6.17738 11.3207L4.17643 12.6547L3.34531 11.8236L4.67929 9.82263L4.36309 9.05932L2.00495 8.5877V7.41232L4.36309 6.94069L4.67928 6.17739L3.34531 4.17643L4.17642 3.34532L6.17737 4.67928L6.94069 4.36313L7.41231 2.00497L8.58769 2.00496L9.05931 4.36311L9.82263 4.67927L11.8236 3.3453L12.6547 4.17642L11.3207 6.17737L11.6369 6.94069L12.2194 7.05719C12.3324 7.07535 12.444 7.09771 12.554 7.12411L13.995 7.41232V7.75447C14.3747 8.00786 14.7136 8.31745 15 8.67133V6.58846L12.5775 6.10396L13.9479 4.04837L11.9516 2.05214L9.89605 3.42252L9.41155 1ZM8 6C8.8592 6 9.59185 6.54179 9.87496 7.30237C9.55558 7.42609 9.25385 7.58522 8.97457 7.77493C8.87247 7.33103 8.47489 7 8 7C7.44772 7 7 7.44772 7 8C7 8.47489 7.33103 8.87247 7.77493 8.97457C7.58522 9.25385 7.42609 9.55558 7.30237 9.87496C6.54179 9.59185 6 8.8592 6 8C6 6.89543 6.89543 6 8 6ZM9.27944 8.79462C9.90534 8.28088 10.69 8.00006 11.4998 8C11.9594 7.99997 12.4145 8.09047 12.8392 8.26634C13.2639 8.44221 13.6497 8.7 13.9748 9.025C14.5474 9.59754 14.9037 10.3509 14.9831 11.1568C15.0625 11.9626 14.8601 12.771 14.4103 13.4443C13.9604 14.1176 13.2911 14.6141 12.5162 14.8492C11.7413 15.0843 10.9089 15.0435 10.1608 14.7337C9.41269 14.4238 8.79514 13.8642 8.41339 13.1501C8.03163 12.436 7.90929 11.6116 8.06721 10.8174C8.22513 10.0232 8.65354 9.30836 9.27944 8.79462ZM8.99975 11V12H13.9998V11H8.99975Z" fill="#C5C5C5"/>
</svg>

<svg width="16" height="16" xmlns="http://www.w3.org/2000/svg"><path fill-rule="evenodd" clip-rule="evenodd" d="M9.412 1H6.588l-.484 2.423-2.056-1.37-1.996 1.995 1.37 2.056L1 6.588v2.824l2.423.484-1.37 2.056 1.995 1.996 2.056-1.37L6.588 15h2.083a4.526 4.526 0 0 1-.917-1.005h-.342l-.288-1.441a4.473 4.473 0 0 1-.067-.334l-.116-.583-.764-.316-2 1.334-.832-.831L4.68 9.823l-.316-.764-2.358-.471V7.412l2.358-.471.316-.764-1.334-2 .831-.832 2 1.335.764-.316.471-2.358h1.176l.471 2.358.764.316 2-1.334.832.831-1.334 2.001.316.764.582.116c.113.018.225.04.335.067l1.441.288v.342c.38.254.719.563 1.005.917V6.588l-2.422-.484 1.37-2.056-1.996-1.996-2.056 1.37L9.412 1zM8 6a2 2 0 0 1 1.875 1.302 4.46 4.46 0 0 0-.9.473 1 1 0 1 0-1.2 1.2 4.46 4.46 0 0 0-.473.9A2 2 0 0 1 8 6zm1.28 2.795a3.5 3.5 0 1 1 4.44 5.41 3.5 3.5 0 0 1-4.44-5.41zM9 11v1h5v-1H9z"/></svg>
